bernoullicharts/2014_add_x_0_5_mean.svg

<?xml version="1.0" encoding="utf-8" standalone="no"?>
<!DOCTYPE svg PUBLIC "-//W3C//DTD SVG 1.1//EN"
  "http://www.w3.org/Graphics/SVG/1.1/DTD/svg11.dtd">
<!-- Created with matplotlib (https://matplotlib.org/) -->
<svg height="345.6pt" version="1.1" viewBox="0 0 460.8 345.6" width="460.8pt" xmlns="http://www.w3.org/2000/svg" xmlns:xlink="http://www.w3.org/1999/xlink">
 <defs>
  <style type="text/css">
*{stroke-linecap:butt;stroke-linejoin:round;}
  </style>
 </defs>
 <g id="figure_1">
  <g id="patch_1">
   <path d="M 0 345.6 
L 460.8 345.6 
L 460.8 0 
L 0 0 
z
" style="fill:#ffffff;"/>
  </g>
  <g id="axes_1">
   <g id="patch_2">
    <path d="M 57.6 307.584 
L 414.72 307.584 
L 414.72 41.472 
L 57.6 41.472 
z
" style="fill:#ffffff;"/>
   </g>
   <g id="matplotlib.axis_1">
    <g id="xtick_1">
     <g id="line2d_1">
      <defs>
       <path d="M 0 0 
L 0 3.5 
" id="mf0c64efdf8" style="stroke:#000000;stroke-width:0.8;"/>
      </defs>
      <g>
       <use style="stroke:#000000;stroke-width:0.8;" x="73.767121" xlink:href="#mf0c64efdf8" y="307.584"/>
      </g>
     </g>
     <g id="text_1">
      <text style="font-family:DejaVu Sans;font-size:10px;font-style:normal;font-weight:normal;text-anchor:middle;" transform="rotate(-0, 73.767121, 322.182437)" x="73.767121" y="322.182437">0.0</text>
     </g>
    </g>
    <g id="xtick_2">
     <g id="line2d_2">
      <g>
       <use style="stroke:#000000;stroke-width:0.8;" x="139.373711" xlink:href="#mf0c64efdf8" y="307.584"/>
      </g>
     </g>
     <g id="text_2">
      <text style="font-family:DejaVu Sans;font-size:10px;font-style:normal;font-weight:normal;text-anchor:middle;" transform="rotate(-0, 139.373711, 322.182437)" x="139.373711" y="322.182437">0.1</text>
     </g>
    </g>
    <g id="xtick_3">
     <g id="line2d_3">
      <g>
       <use style="stroke:#000000;stroke-width:0.8;" x="204.980302" xlink:href="#mf0c64efdf8" y="307.584"/>
      </g>
     </g>
     <g id="text_3">
      <text style="font-family:DejaVu Sans;font-size:10px;font-style:normal;font-weight:normal;text-anchor:middle;" transform="rotate(-0, 204.980302, 322.182437)" x="204.980302" y="322.182437">0.2</text>
     </g>
    </g>
    <g id="xtick_4">
     <g id="line2d_4">
      <g>
       <use style="stroke:#000000;stroke-width:0.8;" x="270.586893" xlink:href="#mf0c64efdf8" y="307.584"/>
      </g>
     </g>
     <g id="text_4">
      <text style="font-family:DejaVu Sans;font-size:10px;font-style:normal;font-weight:normal;text-anchor:middle;" transform="rotate(-0, 270.586893, 322.182437)" x="270.586893" y="322.182437">0.3</text>
     </g>
    </g>
    <g id="xtick_5">
     <g id="line2d_5">
      <g>
       <use style="stroke:#000000;stroke-width:0.8;" x="336.193484" xlink:href="#mf0c64efdf8" y="307.584"/>
      </g>
     </g>
     <g id="text_5">
      <text style="font-family:DejaVu Sans;font-size:10px;font-style:normal;font-weight:normal;text-anchor:middle;" transform="rotate(-0, 336.193484, 322.182437)" x="336.193484" y="322.182437">0.4</text>
     </g>
    </g>
    <g id="xtick_6">
     <g id="line2d_6">
      <g>
       <use style="stroke:#000000;stroke-width:0.8;" x="401.800074" xlink:href="#mf0c64efdf8" y="307.584"/>
      </g>
     </g>
     <g id="text_6">
      <text style="font-family:DejaVu Sans;font-size:10px;font-style:normal;font-weight:normal;text-anchor:middle;" transform="rotate(-0, 401.800074, 322.182437)" x="401.800074" y="322.182437">0.5</text>
     </g>
    </g>
    <g id="text_7">
     <text style="font-family:DejaVu Sans;font-size:10px;font-style:normal;font-weight:normal;text-anchor:middle;" transform="rotate(-0, 236.16, 335.860562)" x="236.16" y="335.860562">Input Coin's Heads Probability (λ)</text>
    </g>
   </g>
   <g id="matplotlib.axis_2">
    <g id="ytick_1">
     <g id="line2d_7">
      <defs>
       <path d="M 0 0 
L -3.5 0 
" id="m6799f7fb19" style="stroke:#000000;stroke-width:0.8;"/>
      </defs>
      <g>
       <use style="stroke:#000000;stroke-width:0.8;" x="57.6" xlink:href="#m6799f7fb19" y="279.085115"/>
      </g>
     </g>
     <g id="text_8">
      <text style="font-family:DejaVu Sans;font-size:10px;font-style:normal;font-weight:normal;text-anchor:end;" transform="rotate(-0, 50.6, 282.884334)" x="50.6" y="282.884334">0.5</text>
     </g>
    </g>
    <g id="ytick_2">
     <g id="line2d_8">
      <g>
       <use style="stroke:#000000;stroke-width:0.8;" x="57.6" xlink:href="#m6799f7fb19" y="233.521546"/>
      </g>
     </g>
     <g id="text_9">
      <text style="font-family:DejaVu Sans;font-size:10px;font-style:normal;font-weight:normal;text-anchor:end;" transform="rotate(-0, 50.6, 237.320765)" x="50.6" y="237.320765">0.6</text>
     </g>
    </g>
    <g id="ytick_3">
     <g id="line2d_9">
      <g>
       <use style="stroke:#000000;stroke-width:0.8;" x="57.6" xlink:href="#m6799f7fb19" y="187.957977"/>
      </g>
     </g>
     <g id="text_10">
      <text style="font-family:DejaVu Sans;font-size:10px;font-style:normal;font-weight:normal;text-anchor:end;" transform="rotate(-0, 50.6, 191.757196)" x="50.6" y="191.757196">0.7</text>
     </g>
    </g>
    <g id="ytick_4">
     <g id="line2d_10">
      <g>
       <use style="stroke:#000000;stroke-width:0.8;" x="57.6" xlink:href="#m6799f7fb19" y="142.394408"/>
      </g>
     </g>
     <g id="text_11">
      <text style="font-family:DejaVu Sans;font-size:10px;font-style:normal;font-weight:normal;text-anchor:end;" transform="rotate(-0, 50.6, 146.193627)" x="50.6" y="146.193627">0.8</text>
     </g>
    </g>
    <g id="ytick_5">
     <g id="line2d_11">
      <g>
       <use style="stroke:#000000;stroke-width:0.8;" x="57.6" xlink:href="#m6799f7fb19" y="96.830839"/>
      </g>
     </g>
     <g id="text_12">
      <text style="font-family:DejaVu Sans;font-size:10px;font-style:normal;font-weight:normal;text-anchor:end;" transform="rotate(-0, 50.6, 100.630058)" x="50.6" y="100.630058">0.9</text>
     </g>
    </g>
    <g id="ytick_6">
     <g id="line2d_12">
      <g>
       <use style="stroke:#000000;stroke-width:0.8;" x="57.6" xlink:href="#m6799f7fb19" y="51.26727"/>
      </g>
     </g>
     <g id="text_13">
      <text style="font-family:DejaVu Sans;font-size:10px;font-style:normal;font-weight:normal;text-anchor:end;" transform="rotate(-0, 50.6, 55.066489)" x="50.6" y="55.066489">1.0</text>
     </g>
    </g>
    <g id="text_14">
     <text style="font-family:DejaVu Sans;font-size:10px;font-style:normal;font-weight:normal;text-anchor:middle;" transform="rotate(-90, 28.617187, 174.528)" x="28.617187" y="174.528">Simulated Mean / Function Value</text>
    </g>
   </g>
   <g id="line2d_13">
    <path clip-path="url(#pc3439f9447)" d="M 73.832727 279.039552 
L 80.45833 274.438091 
L 87.083933 269.836631 
L 93.709536 265.235171 
L 100.335139 260.633711 
L 106.960742 256.03225 
L 113.586345 251.43079 
L 120.211948 246.82933 
L 126.837551 242.22787 
L 133.463154 237.626409 
L 140.088757 233.024949 
L 146.71436 228.423489 
L 153.339963 223.822029 
L 159.965566 219.220569 
L 166.591169 214.619108 
L 173.216772 210.017648 
L 179.842375 205.416188 
L 186.467978 200.814728 
L 193.093581 196.213267 
L 199.719184 191.611807 
L 206.344787 187.010347 
L 212.97039 182.408887 
L 219.595993 177.807426 
L 226.221596 173.205966 
L 232.847199 168.604506 
L 239.472801 164.003046 
L 246.098404 159.401585 
L 252.724007 154.800125 
L 259.34961 150.198665 
L 265.975213 145.597205 
L 272.600816 140.995744 
L 279.226419 136.394284 
L 285.852022 131.792824 
L 292.477625 127.191364 
L 299.103228 122.589904 
L 305.728831 117.988443 
L 312.354434 113.386983 
L 318.980037 108.785523 
L 325.60564 104.184063 
L 332.231243 99.582602 
L 338.856846 94.981142 
L 345.482449 90.379682 
L 352.108052 85.778222 
L 358.733655 81.176761 
L 365.359258 76.575301 
L 371.984861 71.973841 
L 378.610464 67.372381 
L 385.236067 62.77092 
L 391.86167 58.16946 
L 398.487273 53.568 
" style="fill:none;stroke:#1f77b4;stroke-linecap:square;stroke-width:1.5;"/>
   </g>
   <g id="line2d_14">
    <path clip-path="url(#pc3439f9447)" d="M 73.832727 285.464015 
L 80.45833 295.488 
L 87.083933 255.392059 
L 93.709536 269.972401 
L 100.335139 247.190617 
L 106.960742 270.883673 
L 113.586345 270.883673 
L 120.211948 235.344089 
L 126.837551 229.876461 
L 133.463154 243.545531 
L 140.088757 235.344089 
L 146.71436 237.166632 
L 153.339963 224.408832 
L 159.965566 215.296118 
L 166.591169 225.320104 
L 173.216772 216.20739 
L 179.842375 224.408832 
L 186.467978 196.159419 
L 193.093581 195.248148 
L 199.719184 192.514334 
L 206.344787 218.029933 
M 219.595993 179.756535 
L 226.221596 176.111449 
L 232.847199 155.152207 
M 246.098404 153.329665 
M 279.226419 139.660594 
M 292.477625 133.281694 
M 305.728831 125.991523 
L 312.354434 115.056267 
M 332.231243 105.943553 
L 338.856846 78.605411 
" style="fill:none;stroke:#ff7f0e;stroke-linecap:square;stroke-width:1.5;"/>
   </g>
   <g id="line2d_15">
    <path clip-path="url(#pc3439f9447)" d="M 73.832727 269.972401 
L 80.45833 266.327316 
L 87.083933 268.149859 
L 93.709536 255.392059 
L 100.335139 274.528758 
L 106.960742 248.101888 
L 113.586345 265.416044 
L 120.211948 250.835702 
L 126.837551 259.037145 
L 133.463154 238.077903 
L 140.088757 247.190617 
L 146.71436 232.610275 
L 153.339963 236.25536 
L 159.965566 217.118661 
L 166.591169 224.408832 
L 173.216772 200.715776 
L 179.842375 210.739762 
L 186.467978 215.296118 
L 193.093581 190.691791 
L 199.719184 197.070691 
L 206.344787 195.248148 
L 212.97039 174.288906 
L 219.595993 158.797293 
L 226.221596 177.02272 
M 239.472801 165.176193 
L 246.098404 159.708564 
M 265.975213 148.773308 
M 279.226419 135.104237 
" style="fill:none;stroke:#2ca02c;stroke-linecap:square;stroke-width:1.5;"/>
   </g>
   <g id="line2d_16">
    <path clip-path="url(#pc3439f9447)" d="M 0 0 
" style="fill:none;stroke:#d62728;stroke-linecap:square;stroke-width:1.5;"/>
   </g>
   <g id="patch_3">
    <path d="M 57.6 307.584 
L 57.6 41.472 
" style="fill:none;stroke:#000000;stroke-linecap:square;stroke-linejoin:miter;stroke-width:0.8;"/>
   </g>
   <g id="patch_4">
    <path d="M 414.72 307.584 
L 414.72 41.472 
" style="fill:none;stroke:#000000;stroke-linecap:square;stroke-linejoin:miter;stroke-width:0.8;"/>
   </g>
   <g id="patch_5">
    <path d="M 57.6 307.584 
L 414.72 307.584 
" style="fill:none;stroke:#000000;stroke-linecap:square;stroke-linejoin:miter;stroke-width:0.8;"/>
   </g>
   <g id="patch_6">
    <path d="M 57.6 41.472 
L 414.72 41.472 
" style="fill:none;stroke:#000000;stroke-linecap:square;stroke-linejoin:miter;stroke-width:0.8;"/>
   </g>
   <g id="text_15">
    <text style="font-family:DejaVu Sans;font-size:12px;font-style:normal;font-weight:normal;text-anchor:middle;" transform="rotate(-0, 236.16, 35.472)" x="236.16" y="35.472">Expected Value in 2014 Add. x+0.5 Algorithm</text>
   </g>
   <g id="legend_1">
    <g id="patch_7">
     <path d="M 64.6 108.1845 
L 278.101562 108.1845 
Q 280.101562 108.1845 280.101562 106.1845 
L 280.101562 48.472 
Q 280.101562 46.472 278.101562 46.472 
L 64.6 46.472 
Q 62.6 46.472 62.6 48.472 
L 62.6 106.1845 
Q 62.6 108.1845 64.6 108.1845 
z
" style="fill:#ffffff;opacity:0.8;stroke:#cccccc;stroke-linejoin:miter;"/>
    </g>
    <g id="line2d_17">
     <path d="M 66.6 54.570438 
L 86.6 54.570438 
" style="fill:none;stroke:#1f77b4;stroke-linecap:square;stroke-width:1.5;"/>
    </g>
    <g id="line2d_18"/>
    <g id="text_16">
     <text style="font-family:DejaVu Sans;font-size:10px;font-style:normal;font-weight:normal;text-anchor:start;" transform="rotate(-0, 94.6, 58.070438)" x="94.6" y="58.070438">2014 Add. x+0.5</text>
    </g>
    <g id="line2d_19">
     <path d="M 66.6 69.248563 
L 86.6 69.248563 
" style="fill:none;stroke:#ff7f0e;stroke-linecap:square;stroke-width:1.5;"/>
    </g>
    <g id="line2d_20"/>
    <g id="text_17">
     <text style="font-family:DejaVu Sans;font-size:10px;font-style:normal;font-weight:normal;text-anchor:start;" transform="rotate(-0, 94.6, 72.748563)" x="94.6" y="72.748563">Simulated Mean of 2014 Add. x+0.5</text>
    </g>
    <g id="line2d_21">
     <path d="M 66.6 83.926688 
L 86.6 83.926688 
" style="fill:none;stroke:#2ca02c;stroke-linecap:square;stroke-width:1.5;"/>
    </g>
    <g id="line2d_22"/>
    <g id="text_18">
     <text style="font-family:DejaVu Sans;font-size:10px;font-style:normal;font-weight:normal;text-anchor:start;" transform="rotate(-0, 94.6, 87.426688)" x="94.6" y="87.426688">Simulated Mean of 2016 Add. x+0.5</text>
    </g>
    <g id="line2d_23">
     <path d="M 66.6 98.604813 
L 86.6 98.604813 
" style="fill:none;stroke:#d62728;stroke-linecap:square;stroke-width:1.5;"/>
    </g>
    <g id="line2d_24"/>
    <g id="text_19">
     <text style="font-family:DejaVu Sans;font-size:10px;font-style:normal;font-weight:normal;text-anchor:start;" transform="rotate(-0, 94.6, 102.104813)" x="94.6" y="102.104813">Simulated Mean of 2019 Add. x+0.5</text>
    </g>
   </g>
  </g>
 </g>
 <defs>
  <clipPath id="pc3439f9447">
   <rect height="266.112" width="357.12" x="57.6" y="41.472"/>
  </clipPath>
 </defs>
</svg>

<svg height="460.8" viewBox="0 0 460.8 345.6" width="614.4" xmlns="http://www.w3.org/2000/svg" xmlns:xlink="http://www.w3.org/1999/xlink"><defs><style>*{stroke-linecap:butt;stroke-linejoin:round}</style></defs><g id="figure_1"><path d="M0 345.6h460.8V0H0z" fill="#fff" id="patch_1"/><g id="axes_1"><path d="M57.6 307.584h357.12V41.472H57.6z" fill="#fff" id="patch_2"/><g id="matplotlib.axis_1"><g id="xtick_1"><g id="line2d_1"><defs><path d="M0 0v3.5" id="mf0c64efdf8" stroke="#000" stroke-width=".8"/></defs><use x="73.767" xlink:href="#mf0c64efdf8" y="307.584" stroke="#000" stroke-width=".8"/></g><text x="73.767" y="322.182" font-family="DejaVu Sans" font-size="10" font-weight="400" text-anchor="middle" id="text_1">0.0</text></g><g id="xtick_2"><use x="139.374" xlink:href="#mf0c64efdf8" y="307.584" stroke="#000" stroke-width=".8" id="line2d_2"/><text x="139.374" y="322.182" font-family="DejaVu Sans" font-size="10" font-weight="400" text-anchor="middle" id="text_2">0.1</text></g><g id="xtick_3"><use x="204.98" xlink:href="#mf0c64efdf8" y="307.584" stroke="#000" stroke-width=".8" id="line2d_3"/><text x="204.98" y="322.182" font-family="DejaVu Sans" font-size="10" font-weight="400" text-anchor="middle" id="text_3">0.2</text></g><g id="xtick_4"><use x="270.587" xlink:href="#mf0c64efdf8" y="307.584" stroke="#000" stroke-width=".8" id="line2d_4"/><text x="270.587" y="322.182" font-family="DejaVu Sans" font-size="10" font-weight="400" text-anchor="middle" id="text_4">0.3</text></g><g id="xtick_5"><use x="336.193" xlink:href="#mf0c64efdf8" y="307.584" stroke="#000" stroke-width=".8" id="line2d_5"/><text x="336.193" y="322.182" font-family="DejaVu Sans" font-size="10" font-weight="400" text-anchor="middle" id="text_5">0.4</text></g><g id="xtick_6"><use x="401.8" xlink:href="#mf0c64efdf8" y="307.584" stroke="#000" stroke-width=".8" id="line2d_6"/><text x="401.8" y="322.182" font-family="DejaVu Sans" font-size="10" font-weight="400" text-anchor="middle" id="text_6">0.5</text></g><text x="236.16" y="335.861" font-family="DejaVu Sans" font-size="10" font-weight="400" text-anchor="middle" id="text_7">Input Coin&apos;s Heads Probability (λ)</text></g><g id="matplotlib.axis_2"><g id="ytick_1"><g id="line2d_7"><defs><path d="M0 0h-3.5" id="m6799f7fb19" stroke="#000" stroke-width=".8"/></defs><use x="57.6" xlink:href="#m6799f7fb19" y="279.085" stroke="#000" stroke-width=".8"/></g><text x="50.6" y="282.884" font-family="DejaVu Sans" font-size="10" font-weight="400" text-anchor="end" id="text_8">0.5</text></g><g id="ytick_2"><use x="57.6" xlink:href="#m6799f7fb19" y="233.522" stroke="#000" stroke-width=".8" id="line2d_8"/><text x="50.6" y="237.321" font-family="DejaVu Sans" font-size="10" font-weight="400" text-anchor="end" id="text_9">0.6</text></g><g id="ytick_3"><use x="57.6" xlink:href="#m6799f7fb19" y="187.958" stroke="#000" stroke-width=".8" id="line2d_9"/><text x="50.6" y="191.757" font-family="DejaVu Sans" font-size="10" font-weight="400" text-anchor="end" id="text_10">0.7</text></g><g id="ytick_4"><use x="57.6" xlink:href="#m6799f7fb19" y="142.394" stroke="#000" stroke-width=".8" id="line2d_10"/><text x="50.6" y="146.194" font-family="DejaVu Sans" font-size="10" font-weight="400" text-anchor="end" id="text_11">0.8</text></g><g id="ytick_5"><use x="57.6" xlink:href="#m6799f7fb19" y="96.831" stroke="#000" stroke-width=".8" id="line2d_11"/><text x="50.6" y="100.63" font-family="DejaVu Sans" font-size="10" font-weight="400" text-anchor="end" id="text_12">0.9</text></g><g id="ytick_6"><use x="57.6" xlink:href="#m6799f7fb19" y="51.267" stroke="#000" stroke-width=".8" id="line2d_12"/><text x="50.6" y="55.066" font-family="DejaVu Sans" font-size="10" font-weight="400" text-anchor="end" id="text_13">1.0</text></g><text transform="rotate(-90 28.617 174.528)" x="28.617" y="174.528" font-family="DejaVu Sans" font-size="10" font-weight="400" text-anchor="middle" id="text_14">Simulated Mean / Function Value</text></g><path clip-path="url(#pc3439f9447)" d="M73.833 279.04l6.625-4.602 6.626-4.601 6.626-4.602 6.625-4.601 6.626-4.602 6.625-4.601 6.626-4.602 6.626-4.601 6.625-4.602 6.626-4.601 6.625-4.602 6.626-4.601 6.626-4.601 6.625-4.602 6.626-4.601 6.625-4.602 6.626-4.601 6.626-4.602 6.625-4.601 6.626-4.602 6.625-4.601 6.626-4.602 6.626-4.601 6.625-4.601 6.626-4.602 6.625-4.601 6.626-4.602 6.626-4.601 6.625-4.602 6.626-4.601 6.625-4.602 6.626-4.601 6.626-4.602 6.625-4.601 6.626-4.602 6.625-4.601 6.626-4.601 6.626-4.602 6.625-4.601 6.626-4.602 6.625-4.601 6.626-4.602 6.626-4.601 6.625-4.602 6.626-4.601 6.625-4.602 6.626-4.601 6.626-4.602 6.625-4.601" fill="none" stroke="#1f77b4" stroke-linecap="square" stroke-width="1.5" id="line2d_13"/><path clip-path="url(#pc3439f9447)" d="M73.833 285.464l6.625 10.024 6.626-40.096 6.626 14.58 6.625-22.781 6.626 23.693h6.625l6.626-35.54 6.626-5.468 6.625 13.67 6.626-8.202 6.625 1.823 6.626-12.758 6.626-9.113 6.625 10.024 6.626-9.113 6.625 8.202 6.626-28.25 6.626-.91 6.625-2.735 6.626 25.516m13.251-38.273l6.626-3.646 6.625-20.959m72.881-29.16l6.626-10.936m19.877-9.112l6.626-27.339" fill="none" stroke="#ff7f0e" stroke-linecap="square" stroke-width="1.5" id="line2d_14"/><path clip-path="url(#pc3439f9447)" d="M73.833 269.972l6.625-3.645 6.626 1.823 6.626-12.758 6.625 19.137 6.626-26.427 6.625 17.314 6.626-14.58 6.626 8.201 6.625-20.96 6.626 9.114 6.625-14.58 6.626 3.644 6.626-19.136 6.625 7.29 6.626-23.693 6.625 10.024 6.626 4.556 6.626-24.604 6.625 6.379 6.626-1.823 6.625-20.96 6.626-15.49 6.626 18.225m13.25-11.847l6.626-5.467m33.128-24.605" fill="none" stroke="#2ca02c" stroke-linecap="square" stroke-width="1.5" id="line2d_15"/><path d="M57.6 307.584V41.472" fill="none" stroke="#000" stroke-linecap="square" stroke-width=".8" id="patch_3"/><path d="M414.72 307.584V41.472" fill="none" stroke="#000" stroke-linecap="square" stroke-width=".8" id="patch_4"/><path d="M57.6 307.584h357.12" fill="none" stroke="#000" stroke-linecap="square" stroke-width=".8" id="patch_5"/><path d="M57.6 41.472h357.12" fill="none" stroke="#000" stroke-linecap="square" stroke-width=".8" id="patch_6"/><text x="236.16" y="35.472" font-family="DejaVu Sans" font-size="12" font-weight="400" text-anchor="middle" id="text_15">Expected Value in 2014 Add. x+0.5 Algorithm</text><g id="legend_1"><path d="M64.6 108.184h213.502q2 0 2-2V48.472q0-2-2-2H64.6q-2 0-2 2v57.712q0 2 2 2z" fill="#fff" opacity=".8" stroke="#ccc" id="patch_7"/><path d="M66.6 54.57h20" fill="none" stroke="#1f77b4" stroke-linecap="square" stroke-width="1.5" id="line2d_17"/><text x="94.6" y="58.07" font-family="DejaVu Sans" font-size="10" font-weight="400" id="text_16">2014 Add. x+0.5</text><path d="M66.6 69.249h20" fill="none" stroke="#ff7f0e" stroke-linecap="square" stroke-width="1.5" id="line2d_19"/><text x="94.6" y="72.749" font-family="DejaVu Sans" font-size="10" font-weight="400" id="text_17">Simulated Mean of 2014 Add. x+0.5</text><path d="M66.6 83.927h20" fill="none" stroke="#2ca02c" stroke-linecap="square" stroke-width="1.5" id="line2d_21"/><text x="94.6" y="87.427" font-family="DejaVu Sans" font-size="10" font-weight="400" id="text_18">Simulated Mean of 2016 Add. x+0.5</text><path d="M66.6 98.605h20" fill="none" stroke="#d62728" stroke-linecap="square" stroke-width="1.5" id="line2d_23"/><text x="94.6" y="102.105" font-family="DejaVu Sans" font-size="10" font-weight="400" id="text_19">Simulated Mean of 2019 Add. x+0.5</text></g></g></g><defs><clipPath id="pc3439f9447"><path d="M57.6 41.472h357.12v266.112H57.6z"/></clipPath></defs></svg>
